.github/assets/stackup-dark.svg

<svg height="72" viewBox="0 0 293 72" width="293" xmlns="http://www.w3.org/2000/svg" xmlns:xlink="http://www.w3.org/1999/xlink"><mask id="a" fill="#fff"><path d="m.06949893.00531099h274.23677607v60.17524291h-274.23677607z" fill="#fff" fill-rule="evenodd"/></mask><g fill="#fff" fill-rule="evenodd" transform="translate(3.329545 3.329545)"><path d="m92.7877382 28.3462335c-4.2259219-1.3607959-7.8769423-2.5353869-7.8769423-5.7458767 0-2.6465803 2.3867654-4.3559588 6.0800451-4.3559588 3.5497744 0 5.7956758 1.0872247 7.4367421 1.8814636 1.0239057.495958 1.8329939.8869 2.6359189.8869 1.366381 0 2.318975-.9098447 2.318975-2.2132789 0-3.0304624-5.5377189-5.6893975-11.8510702-5.6893975-7.3469413 0-12.2833463 3.9005952-12.2833463 9.706481 0 6.7183781 6.0087327 8.6775005 11.3096235 10.4062937 4.4821184 1.4613995 8.3514781 2.7242392 8.3514781 6.3706779 0 3.0745868-2.6191911 5.0601839-6.6743153 5.0601839-4.0480811 0-6.6223718-1.4666944-8.5020267-2.5380343-1.024786-.5833243-1.8329936-1.0448653-2.5469983-1.0448653-1.3426106 0-2.3172138.9310244-2.3172138 2.2150438 0 3.3146234 6.2860588 6.4492193 12.9348426 6.4492193 7.6911778 0 12.6610384-4.1309244 12.6610384-10.5218995 0-7.1084376-6.2033015-9.1046245-11.6767508-10.8669522"/><path d="m124.36917 43.7917787c-.517276 0-1.004641.1877669-1.521037.3878752-.647475.2503559-1.382042.53421-2.376127.53421-2.001365 0-2.93387-1.0375663-2.93387-3.2660858v-14.0578329h5.586229c1.395237 0 2.369089-.9767404 2.369089-2.3748544 0-1.4298492-.973852-2.4295094-2.369089-2.4295094h-5.641651v-3.8611218c0-1.5647239-1.132201-2.7010221-2.692826-2.7010221-1.529835 0-2.640043 1.1362982-2.640043 2.7010221v3.8611218h-2.609253c-1.396117 0-2.370848.9767403-2.370848 2.3748543 0 1.4307307.974731 2.4295095 2.370848 2.4295095h2.609253v13.6249994c0 5.6224279 2.878447 8.7201406 8.106629 8.7201406 4.07047 0 6.266253-2.0063728 6.266253-3.8937385 0-1.0181725-.739845-2.049568-2.153557-2.049568"/><path d="m134.160916 35.7660869c0-5.0621924 3.526984-8.8802792 8.204052-8.8802792 4.647081 0 8.151134 3.8180868 8.151134 8.8802792 0 5.0931403-3.504053 8.9324485-8.151134 8.9324485-4.600337 0-8.204052-3.9233097-8.204052-8.9324485zm19.056649-13.3712618c-1.591067 0-2.701463 1.0911346-2.701463 2.6535615v.8621201c-2.140533-2.624382-5.254756-4.0603647-8.855825-4.0603647-7.324731 0-12.848487 5.9826715-12.848487 13.9159449 0 7.963337 5.523756 13.9689983 12.848487 13.9689983 3.572846 0 6.687952-1.4890361 8.855825-4.210683v1.0124385c0 1.5624269 1.110396 2.6544457 2.701463 2.6544457 1.558435 0 2.646782-1.0920188 2.646782-2.6544457v-21.4884541c0-1.5624269-1.088347-2.6535615-2.646782-2.6535615z"/><path d="m176.502903 26.8858077c2.46941 0 3.926361.6401794 5.096685 1.1530304.785802.344848 1.464007.6428321 2.226879.6428321 1.262044 0 2.211885-.9302055 2.211885-2.1645847 0-2.5730969-4.107157-4.6669435-9.1571-4.6669435-8.19844 0-14.149718 5.8526903-14.149718 13.9159449 0 8.0933182 5.905417 13.9689983 14.040358 13.9689983 5.023485 0 9.26646-2.1132995 9.26646-4.6130057 0-1.2856642-.930438-2.2194066-2.211885-2.2194066-.762872 0-1.441077.2988683-2.226879.6437163-1.170324.5137352-2.627275 1.1521462-5.096685 1.1521462-4.880612 0-8.422451-3.7570752-8.422451-8.9324485 0-5.1453097 3.541839-8.8802792 8.422451-8.8802792"/><g transform="translate(11.861506)"><path d="m236.018725 13.6136217c-1.566578 0-2.703981 1.1381496-2.703981 2.70664v18.9182028c0 5.5555486-3.310654 9.1449615-8.433381 9.1449615-5.04325 0-8.432498-3.6751276-8.432498-9.1449615v-18.9182028c0-1.5684904-1.160363-2.70664-2.759614-2.70664-1.565695 0-2.703098 1.1381496-2.703098 2.70664v18.9182028c0 8.6748562 5.563383 14.5043384 13.842226 14.5043384 8.343307 0 13.949077-5.8294822 13.949077-14.5043384v-18.9182028c0-1.5684904-1.160363-2.70664-2.758731-2.70664" mask="url(#a)"/><path d="m268.952182 35.890603c0 5.027122-3.50758 8.8188923-8.160511 8.8188923-4.684721 0-8.217027-3.7917703-8.217027-8.8188923 0-5.0368423 3.610017-8.9823687 8.217027-8.9823687 4.652931 0 8.160511 3.8624627 8.160511 8.9823687zm-7.509683-14.0147927c-3.603836 0-6.723745 1.4350582-8.867855 4.0586345v-.8624488c0-1.5614211-1.088833-2.6518533-2.650113-2.6518533-1.592187 0-2.70398 1.0904322-2.70398 2.6518533v32.4019179c0 1.5941164 1.111793 2.70664 2.70398 2.70664 1.53567 0 2.650113-1.1390333 2.650113-2.70664v-11.8957843c2.184731 2.6925015 5.305524 4.1646733 8.867855 4.1646733 7.333951 0 12.864659-5.9797038 12.864659-13.9069866 0-7.9582108-5.530708-13.960006-12.864659-13.960006z" mask="url(#a)"/><path d="m17.0166212 33.9235835c1.407624 0 2.5520912-1.1452188 2.5520912-2.5537673 0-1.4076649-1.1444672-2.5528838-2.5520912-2.5528838-6.5303512 0-11.84470592-5.3169614-11.84470592-11.8524851 0-6.5346401 5.31435472-11.85160152 11.84470592-11.85160152 1.407624 0 2.5520912-1.14610253 2.5520912-2.5537674 0-1.40766486-1.1444672-2.55376739-2.5520912-2.55376739-9.34471618 0-16.94712227 7.60739913-16.94712227 16.95913631 0 9.3508535 7.60240609 16.9591362 16.94712227 16.9591362" mask="url(#a)"/></g><path d="m26.2201705 16.912543c0 1.4077259 1.1480983 2.5538782 2.5593025 2.5538782 6.5519561 0 11.883172 5.3163084 11.883172 11.8521157 0 6.5349237-5.3312159 11.8521158-11.883172 11.8521158-1.4112042 0-2.5593025 1.1461522-2.5593025 2.5547619 0 1.4068422 1.1480983 2.5529945 2.5593025 2.5529945 9.3752504 0 17.001777-7.6077292 17.001777-16.9598722 0-9.3512592-7.6265266-16.9598721-17.001777-16.9598721-1.4112042 0-2.5593025 1.1461522-2.5593025 2.5538782"/><path d="m58.8332192 31.6306818c-1.4084959 0-2.5543909 1.147478-2.5543909 2.5579197 0 14.1274371-11.4775175 25.6208102-25.5845811 25.6208102-14.108832 0-25.58458122-11.4933731-25.58458122-25.6208102 0-1.4104417-1.14589499-2.5579197-2.55527508-2.5579197-1.40849592 0-2.5543909 1.147478-2.5543909 2.5579197 0 16.9492058 13.7693075 30.7375349 30.6942472 30.7375349 16.9240554 0 30.6942471-13.7883291 30.6942471-30.7375349 0-1.4104417-1.145895-2.5579197-2.5552751-2.5579197"/><path d="m216.004261 24.7143226c0-1.403746-1.143018-2.5450603-2.54886-2.5450603-1.40496 0-2.547978 1.1413143-2.547978 2.5450603 0 4.6216183-3.765963 8.3802056-8.393599 8.3802056h-5.300571v-19.4217165c0-1.5314394-1.136844-2.6436924-2.701439-2.6436924-1.559302 0-2.646757 1.087595-2.646757 2.6436924v32.7247205c0 1.5560974 1.111268 2.6436924 2.701439 2.6436924 1.533726 0 2.646757-1.112253 2.646757-2.6436924v-8.213764h5.300571c4.627636 0 8.393599 3.7603487 8.393599 8.3810863 0 1.4037461 1.143018 2.545941 2.547978 2.545941 1.405842 0 2.54886-1.1421949 2.54886-2.545941 0-4.3318865-2.091123-8.3881314-5.61102-10.9252659 3.519897-2.5371346 5.61102-6.5933795 5.61102-10.925266"/></g></svg>

<svg width="293px" height="72px" viewBox="0 0 293 72" version="1.1" xmlns="http://www.w3.org/2000/svg" xmlns:xlink="http://www.w3.org/1999/xlink"><defs><polygon id="path-1" points="0.0694989256 0.00531098691 274.306275 0.00531098691 274.306275 60.1805539 0.0694989256 60.1805539"></polygon></defs><g id="Page-1" stroke="none" stroke-width="1" fill="none" fill-rule="evenodd"><g id="Group"><g id="stackup-rgb" transform="translate(3.329545, 3.329545)"><path d="M92.7877382,28.3462335 C88.5618163,26.9854376 84.9107959,25.8108466 84.9107959,22.6003568 C84.9107959,19.9537765 87.2975613,18.244398 90.990841,18.244398 C94.5406154,18.244398 96.7865168,19.3316227 98.4275831,20.1258616 C99.4514888,20.6218196 100.260577,21.0127616 101.063502,21.0127616 C102.429883,21.0127616 103.382477,20.1029169 103.382477,18.7994827 C103.382477,15.7690203 97.8447581,13.1100852 91.5314068,13.1100852 C84.1844655,13.1100852 79.2480605,17.0106804 79.2480605,22.8165662 C79.2480605,29.5349443 85.2567932,31.4940667 90.557684,33.2228599 C95.0398024,34.6842594 98.9091621,35.9470991 98.9091621,39.5935378 C98.9091621,42.6681246 96.289971,44.6537217 92.2348468,44.6537217 C88.1867657,44.6537217 85.612475,43.1870273 83.7328201,42.1156874 C82.7080341,41.5323631 81.8998265,41.0708221 81.1858218,41.0708221 C79.8432112,41.0708221 78.868608,42.0018465 78.868608,43.2858659 C78.868608,46.6004893 85.1546668,49.7350852 91.8034506,49.7350852 C99.4946284,49.7350852 104.464489,45.6041608 104.464489,39.2131857 C104.464489,32.1047481 98.2611875,30.1085612 92.7877382,28.3462335" id="Fill-1" fill="#ffffff"></path><path d="M124.36917,43.7917787 C123.851894,43.7917787 123.364529,43.9795456 122.848133,44.1796539 C122.200658,44.4300098 121.466091,44.7138639 120.472006,44.7138639 C118.470641,44.7138639 117.538136,43.6762976 117.538136,41.4477781 L117.538136,27.3899452 L123.124365,27.3899452 C124.519602,27.3899452 125.493454,26.4132048 125.493454,25.0150908 C125.493454,23.5852416 124.519602,22.5855814 123.124365,22.5855814 L117.482714,22.5855814 L117.482714,18.7244596 C117.482714,17.1597357 116.350513,16.0234375 114.789888,16.0234375 C113.260053,16.0234375 112.149845,17.1597357 112.149845,18.7244596 L112.149845,22.5855814 L109.540592,22.5855814 C108.144475,22.5855814 107.169744,23.5623217 107.169744,24.9604357 C107.169744,26.3911664 108.144475,27.3899452 109.540592,27.3899452 L112.149845,27.3899452 L112.149845,41.0149446 C112.149845,46.6373725 115.028292,49.7350852 120.256474,49.7350852 C124.326944,49.7350852 126.522727,47.7287124 126.522727,45.8413467 C126.522727,44.8231742 125.782882,43.7917787 124.36917,43.7917787" id="Fill-2" fill="#ffffff"></path><path d="M134.160916,35.7660869 C134.160916,30.7038945 137.6879,26.8858077 142.364968,26.8858077 C147.012049,26.8858077 150.516102,30.7038945 150.516102,35.7660869 C150.516102,40.8592272 147.012049,44.6985354 142.364968,44.6985354 C137.764631,44.6985354 134.160916,40.7752257 134.160916,35.7660869 Z M153.217565,22.3948251 C151.626498,22.3948251 150.516102,23.4859597 150.516102,25.0483866 L150.516102,25.9105067 C148.375569,23.2861247 145.261346,21.850142 141.660277,21.850142 C134.335546,21.850142 128.81179,27.8328135 128.81179,35.7660869 C128.81179,43.7294239 134.335546,49.7350852 141.660277,49.7350852 C145.233123,49.7350852 148.348229,48.2460491 150.516102,45.5244022 L150.516102,46.5368407 C150.516102,48.0992676 151.626498,49.1912864 153.217565,49.1912864 C154.776,49.1912864 155.864347,48.0992676 155.864347,46.5368407 L155.864347,25.0483866 C155.864347,23.4859597 154.776,22.3948251 153.217565,22.3948251 L153.217565,22.3948251 Z" id="Fill-3" fill="#ffffff"></path><path d="M176.502903,26.8858077 C178.972313,26.8858077 180.429264,27.5259871 181.599588,28.0388381 C182.38539,28.3836861 183.063595,28.6816702 183.826467,28.6816702 C185.088511,28.6816702 186.038352,27.7514647 186.038352,26.5170855 C186.038352,23.9439886 181.931195,21.850142 176.881252,21.850142 C168.682812,21.850142 162.731534,27.7028323 162.731534,35.7660869 C162.731534,43.8594051 168.636951,49.7350852 176.771892,49.7350852 C181.795377,49.7350852 186.038352,47.6217857 186.038352,45.1220795 C186.038352,43.8364153 185.107914,42.9026729 183.826467,42.9026729 C183.063595,42.9026729 182.38539,43.2015412 181.599588,43.5463892 C180.429264,44.0601244 178.972313,44.6985354 176.502903,44.6985354 C171.622291,44.6985354 168.080452,40.9414602 168.080452,35.7660869 C168.080452,30.6207772 171.622291,26.8858077 176.502903,26.8858077" id="Fill-4" fill="#ffffff"></path><g id="Group-9" transform="translate(11.861506, 0.000000)"><mask id="mask-2" fill="white"><use xlink:href="#path-1"></use></mask><g id="Clip-6"></g><path d="M236.018725,13.6136217 C234.452147,13.6136217 233.314744,14.7517713 233.314744,16.3202617 L233.314744,35.2384645 C233.314744,40.7940131 230.00409,44.383426 224.881363,44.383426 C219.838113,44.383426 216.448865,40.7082984 216.448865,35.2384645 L216.448865,16.3202617 C216.448865,14.7517713 215.288502,13.6136217 213.689251,13.6136217 C212.123556,13.6136217 210.986153,14.7517713 210.986153,16.3202617 L210.986153,35.2384645 C210.986153,43.9133207 216.549536,49.7428029 224.828379,49.7428029 C233.171686,49.7428029 238.777456,43.9133207 238.777456,35.2384645 L238.777456,16.3202617 C238.777456,14.7517713 237.617093,13.6136217 236.018725,13.6136217" id="Fill-5" fill="#ffffff" mask="url(#mask-2)"></path><path d="M268.952182,35.890603 C268.952182,40.917725 265.444602,44.7094953 260.791671,44.7094953 C256.10695,44.7094953 252.574644,40.917725 252.574644,35.890603 C252.574644,30.8537607 256.184661,26.9082343 260.791671,26.9082343 C265.444602,26.9082343 268.952182,30.770697 268.952182,35.890603 Z M261.442499,21.8758103 C257.838663,21.8758103 254.718754,23.3108685 252.574644,25.9344448 L252.574644,25.071996 C252.574644,23.5105749 251.485811,22.4201427 249.924531,22.4201427 C248.332344,22.4201427 247.220551,23.5105749 247.220551,25.071996 L247.220551,57.4739139 C247.220551,59.0680303 248.332344,60.1805539 249.924531,60.1805539 C251.460201,60.1805539 252.574644,59.0415206 252.574644,57.4739139 L252.574644,45.5781296 C254.759375,48.2706311 257.880168,49.7428029 261.442499,49.7428029 C268.77645,49.7428029 274.307158,43.7630991 274.307158,35.8358163 C274.307158,27.8776055 268.77645,21.8758103 261.442499,21.8758103 L261.442499,21.8758103 Z" id="Fill-7" fill="#ffffff" mask="url(#mask-2)"></path><path d="M17.0166212,33.9235835 C18.4242452,33.9235835 19.5687124,32.7783647 19.5687124,31.3698162 C19.5687124,29.9621513 18.4242452,28.8169324 17.0166212,28.8169324 C10.48627,28.8169324 5.17191528,23.499971 5.17191528,16.9644473 C5.17191528,10.4298072 10.48627,5.11284578 17.0166212,5.11284578 C18.4242452,5.11284578 19.5687124,3.96674325 19.5687124,2.55907838 C19.5687124,1.15141352 18.4242452,0.00531098691 17.0166212,0.00531098691 C7.67190502,0.00531098691 0.0694989256,7.61271012 0.0694989256,16.9644473 C0.0694989256,26.3153008 7.67190502,33.9235835 17.0166212,33.9235835" id="Fill-8" fill="#ffffff" mask="url(#mask-2)"></path></g><path d="M26.2201705,16.912543 C26.2201705,18.3202689 27.3682688,19.4664212 28.779473,19.4664212 C35.3314291,19.4664212 40.662645,24.7827296 40.662645,31.3185369 C40.662645,37.8534606 35.3314291,43.1706527 28.779473,43.1706527 C27.3682688,43.1706527 26.2201705,44.3168049 26.2201705,45.7254146 C26.2201705,47.1322568 27.3682688,48.2784091 28.779473,48.2784091 C38.1547234,48.2784091 45.78125,40.6706799 45.78125,31.3185369 C45.78125,21.9672777 38.1547234,14.3586648 28.779473,14.3586648 C27.3682688,14.3586648 26.2201705,15.504817 26.2201705,16.912543" id="Fill-10" fill="#ffffff"></path><path d="M58.8332192,31.6306818 C57.4247233,31.6306818 56.2788283,32.7781598 56.2788283,34.1886015 C56.2788283,48.3160386 44.8013108,59.8094117 30.6942472,59.8094117 C16.5854152,59.8094117 5.10966598,48.3160386 5.10966598,34.1886015 C5.10966598,32.7781598 3.96377099,31.6306818 2.5543909,31.6306818 C1.14589498,31.6306818 0,32.7781598 0,34.1886015 C0,51.1378073 13.7693075,64.9261364 30.6942472,64.9261364 C47.6183026,64.9261364 61.3884943,51.1378073 61.3884943,34.1886015 C61.3884943,32.7781598 60.2425993,31.6306818 58.8332192,31.6306818" id="Fill-11" fill="#ffffff"></path><path d="M216.004261,24.7143226 C216.004261,23.3105766 214.861243,22.1692623 213.455401,22.1692623 C212.050441,22.1692623 210.907423,23.3105766 210.907423,24.7143226 C210.907423,29.3359409 207.14146,33.0945282 202.513824,33.0945282 L197.213253,33.0945282 L197.213253,13.6728117 C197.213253,12.1413723 196.076409,11.0291193 194.511814,11.0291193 C192.952512,11.0291193 191.865057,12.1167143 191.865057,13.6728117 L191.865057,46.3975322 C191.865057,47.9536296 192.976325,49.0412246 194.566496,49.0412246 C196.100222,49.0412246 197.213253,47.9289716 197.213253,46.3975322 L197.213253,38.1837682 L202.513824,38.1837682 C207.14146,38.1837682 210.907423,41.9441169 210.907423,46.5648545 C210.907423,47.9686006 212.050441,49.1107955 213.455401,49.1107955 C214.861243,49.1107955 216.004261,47.9686006 216.004261,46.5648545 C216.004261,42.232968 213.913138,38.1767231 210.393241,35.6395886 C213.913138,33.102454 216.004261,29.0462091 216.004261,24.7143226" id="Fill-12" fill="#ffffff"></path></g></g></g></svg>
